X: 33378
T: Queen Street Cobbler
R: jig
M: 6/8
K: Fmajor
|:F2 F GFG|AFD DCD|F2 F GFG|GAA AGE|
F2 F GFG|AGF EDC|B,2 B AFD|G2 G GFE:|
|:g2 g gfg|abg afg|f2 f fed|e2 e edc|
dcB AGF|G2 G GAB|ADD DCD|1 ADA cdf:|2 ADA GFE||

